X:21185 
T:STAY WHERE YOU ARE 
B:DMI.0327
Z:Nordberg/Black
N:I'm considering the long c's at the end of
each part as C natural, although they're not 
marked that way in source. If you want to hear
the source version, replace G with D in the K: 
field.
R:jig
%Q:1/4=160
M:6/8
L:1/8
K:G
"D modal"
ABc|dcd ABc|d2A AGE|dcd ABc|def gfe|
"5"dcd ABc|d2A AGE|GAG EDE|c3:|
ABc|"9"d2e fed|ecA AcA|d2e fed|faf gfe|
"13"d2e fed|ecA AGF|GFG EDE|c3:|
ABc|"17"d2A c2A|d2A ABc|d2A c2A|def gfe|
"21"d2B c2A|B2G A2F|GAG EDE|c3:|"final"Hd6z3|]

%%%

